X:1
T: The Fekyet
C:
R:Reel
Q: 232
K:A
M:4/4
L:1/8
|:=g|fA eA aA e=g|fA eA B=G G=g|fA eA aA e=g|fd e=c B=G G=g|
fA eA aA e=g|fA eA B=G G=g|fA eA ce af|=gd ec B=G Gg|
f1/2g1/2a ea cA A=g|f1/2g1/2a e=g B=G Gg|f1/2g1/2a ea ce af|=gd e=c B=G Gg|
f1/2g1/2a ea cA A=g|f1/2g1/2a e=g B=G Gg|fa ea ce ae|=gb eg B=G G:|
